usr/share/icons/biglinux-icons-material/16/actions/object-flip-vertical.svg

<svg xmlns="http://www.w3.org/2000/svg" viewBox="0 0 16 16"><path d="M4 2v5h2v2H4v5h8V9h-2V7h2V2H4zm1 1h6v3H5V3zM2 4v1h1V4H2zm11 0v1h1V4h-1zM7 7h2v2H7V7zm-2 3h6v3H5v-3zm-3 1v1h1v-1H2zm4 0v1h4v-1H6zm7 0v1h1v-1h-1z" style="fill:currentColor;fill-opacity:1;stroke:none;color:#dedede"/></svg>

<svg xmlns="http://www.w3.org/2000/svg" viewBox="0 0 16 16">
  <defs id="defs3051">
    <style type="text/css" id="current-color-scheme">
      .ColorScheme-Text {
        color:#dedede;
      }
      </style>
  </defs>
 <path style="fill:currentColor;fill-opacity:1;stroke:none" 
     d="M 4 2 L 4 7 L 6 7 L 6 9 L 4 9 L 4 14 L 12 14 L 12 9 L 10 9 L 10 7 L 12 7 L 12 2 L 4 2 z M 5 3 L 11 3 L 11 6 L 5 6 L 5 3 z M 2 4 L 2 5 L 3 5 L 3 4 L 2 4 z M 13 4 L 13 5 L 14 5 L 14 4 L 13 4 z M 7 7 L 9 7 L 9 9 L 7 9 L 7 7 z M 5 10 L 11 10 L 11 13 L 5 13 L 5 10 z M 2 11 L 2 12 L 3 12 L 3 11 L 2 11 z M 6 11 L 6 12 L 10 12 L 10 11 L 6 11 z M 13 11 L 13 12 L 14 12 L 14 11 L 13 11 z "
     class="ColorScheme-Text"
     />
</svg>
